X:241
T:St. Anne's Reel
Z:Reel
O: Adaptation of St.A Reels on CCJ pgs 23 & 60
M:4/4
L:1/8
K:D
|:de|"D"f2 f3/2g/2 "A7"fedB|"D"A2 FA DAFA|"G"B2 GB "Em"EBGB|"D"A2 A3/2G/2 FA de|
"D"f2 f3/2g/2 "A7"fedB|"D"A2 FA DAFA|"Em"BGBd "A"cAce|"D"d2 dc d2:|
|: ag|"D"fdfa fdfa|"G"aggf "Em"g2 gf|"A7"edcB  ABce|"E7"baa^g "A7"a2 a=g|
"D"fdfa "Bm"fdfa|"G"aggf g2 gf|"Em"edcB "A"Aceg|"G"fdec "D"d2 :|
